src/mideind.svg

<svg fill="none" height="76" viewBox="0 0 67 76" width="67" xmlns="http://www.w3.org/2000/svg"><path d="m41.1194 71.2153c.5623-.3281 1.0075-1.1013 1.0075-1.7339v-8.2239c0-.6326-.4452-1.4292-1.0075-1.7338l-7.1227-4.1002c-.5623-.328-1.4526-.328-2.0149 0l-7.0759 4.1002c-.5623.3281-1.0075 1.1012-1.0075 1.7338v8.2239c0 .6326.4452 1.4293 1.0075 1.7339l7.1227 4.1002c.5623.328 1.4527.328 2.015 0z" fill="#333"/><path d="m17.2444 45.7235-4.9437-2.8584c-.8435-.4686-1.4292-1.359-1.4292-2.3899v-5.3888c0-1.031.5623-1.9213 1.4292-2.3899l4.9437-2.8584c.5623-.3281 1.0075-1.1012 1.0075-1.7339v-8.2238c0-.6327-.4452-1.4293-1.0075-1.7339l-7.1227-4.1002c-.5623-.328-1.45264-.328-2.01496 0l-7.09925 4.1002c-.562322.3281-1.00749 1.1012-1.00749 1.7339v8.2238c0 .6327.445168 1.4058 1.00749 1.7339l4.9437 2.8584c.84348.4686 1.42923 1.3589 1.42923 2.3899v5.3888c0 1.0309-.56232 1.9213-1.42923 2.3899l-4.9437 2.8584c-.562322.328-1.00749 1.1012-1.00749 1.7338v8.2239c0 .6326.445168 1.4293 1.00749 1.7338l7.12268 4.1003c.56232.328 1.45266.328 2.01493 0l7.0993-4.1003c.5623-.328 1.0075-1.1012 1.0075-1.7338v-8.2239c0-.6326-.4686-1.4058-1.0075-1.7338z" fill="#333"/><path d="m9.11423 25.1521c0-.6326-.44517-1.4292-1.00749-1.7338l-7.09925-4.1002c-.562322-.328-1.00749-.0703-1.00749.5623v8.2239c0 .6326.445168 1.4292 1.00749 1.7338l7.12268 4.1002c.56232.3281 1.00749.0469 1.00749-.5857z" fill="gray"/><path d="m18.2285 28.1041c0 .6326-.4452 1.4292-1.0075 1.7338l-7.1227 4.1003c-.56231.328-1.00748.0468-1.00748-.5858v-8.2239c0-.6326.44517-1.4292 1.00748-1.7338l7.1227-4.1002c.5623-.328 1.0075-.0469 1.0075.5857z" fill="#000"/><path d="m9.11423 52.7291c0-.6326-.44517-1.4292-1.00749-1.7338l-7.09925-4.1002c-.562322-.3281-1.00749-.0469-1.00749.5857v8.2239c0 .6326.445168 1.4292 1.00749 1.7338l7.12268 4.1002c.56232.3281 1.00749.0469 1.00749-.5857z" fill="gray"/><path d="m18.2285 55.6813c0 .6326-.4452 1.4292-1.0075 1.7338l-7.1227 4.1002c-.56231.328-1.00748.0469-1.00748-.5857v-8.2005c0-.6326.44517-1.4292 1.00748-1.7338l7.1227-4.1002c.5623-.3281 1.0075-.0469 1.0075.5857z" fill="#000"/><path d="m66.0253 28.1042v-8.2238c0-.6327-.4452-1.4293-1.0075-1.7339l-7.1227-4.1002c-.5623-.328-1.4526-.328-2.0149 0l-7.1227 4.1002c-.5623.3281-1.0075 1.1012-1.0075 1.7339v8.2238c0 .6327.4452 1.4058 1.0075 1.7339l4.9437 2.8584c.8435.4686 1.4292 1.3589 1.4292 2.3899v5.3888c0 1.0309-.5623 1.9213-1.4292 2.3899l-4.9437 2.8584c-.5623.328-1.0075 1.1012-1.0075 1.7338v8.2239c0 .6326.4452 1.4293 1.0075 1.7338l7.1227 4.1003c.5623.328 1.4526.328 2.0149 0l7.1227-4.1003c.5623-.328 1.0075-1.1012 1.0075-1.7338v-8.2239c0-.6326-.4452-1.4292-1.0075-1.7338l-4.9437-2.8584c-.8435-.4686-1.4292-1.359-1.4292-2.3899v-5.3888c0-1.031.5623-1.9213 1.4292-2.3899l4.9437-2.8584c.5623-.3281 1.0075-1.1012 1.0075-1.7339z" fill="#333"/><path d="m56.9111 25.152c0-.6326-.4452-1.4293-1.0075-1.7339l-7.1227-4.1002c-.5623-.328-1.0075-.0468-1.0075.5858v8.2239c0 .6326.4452 1.4292 1.0075 1.7338l7.1227 4.1002c.5623.328 1.0075.0469 1.0075-.5857z" fill="gray"/><path d="m66.0254 28.1041c0 .6326-.4452 1.4292-1.0075 1.7338l-7.1227 4.1003c-.5623.328-1.0075.0468-1.0075-.5858v-8.2239c0-.6326.4452-1.4292 1.0075-1.7338l7.1227-4.1002c.5623-.328 1.0075-.0469 1.0075.5857z" fill="#000"/><path d="m56.9111 52.7291c0-.6326-.4452-1.4292-1.0075-1.7338l-7.1227-4.1002c-.5623-.3281-1.0075-.0469-1.0075.5857v8.2239c0 .6326.4452 1.4292 1.0075 1.7338l7.1227 4.1002c.5623.3281 1.0075.0469 1.0075-.5857z" fill="gray"/><path d="m66.0254 55.6813c0 .6326-.4452 1.4292-1.0075 1.7338l-7.1227 4.1002c-.5623.328-1.0075.0469-1.0075-.5857v-8.2005c0-.6326.4452-1.4292 1.0075-1.7338l7.1227-4.1002c.5623-.3281 1.0075-.0469 1.0075.5857z" fill="#000"/><path d="m33.0127 66.5292c0-.6327-.4452-1.4293-1.0075-1.7339l-7.0993-4.1002c-.5623-.328-1.0075-.0468-1.0075.5858v8.2239c0 .6326.4452 1.4292 1.0075 1.7338l7.1227 4.1002c.5623.328 1.0075.0469 1.0075-.5857z" fill="gray"/><path d="m42.1269 69.4813c0 .6326-.4452 1.4292-1.0075 1.7338l-7.1227 4.1003c-.5623.328-1.0074.0468-1.0074-.5858v-8.2239c0-.6326.4451-1.4292 1.0074-1.7338l7.1227-4.1002c.5623-.328 1.0075-.0469 1.0075.5857z" fill="#000"/><path d="m42.1269 14.304v-8.20051c0-.63261-.4452-1.42923-1.0075-1.73381l-7.0993-4.123666c-.5623-.3280186-1.4526-.3280186-2.0149 0l-7.1227 4.100236c-.5623.32801-1.0075 1.1012-1.0075 1.73381v8.22394c0 .6326.4452 1.4057 1.0075 1.7338l4.9437 2.8584c.8435.4686 1.4292 1.3589 1.4292 2.3899v5.3888c0 1.031-.5623 1.9213-1.4292 2.3899l-4.9437 2.8584c-.5623.3281-1.0075 1.1012-1.0075 1.7338v8.2239c0 .6326.4452 1.4293 1.0075 1.7339l7.1227 4.1002c.5623.328 1.4526.328 2.0149 0l7.1227-4.1002c.5624-.3281 1.0075-1.1013 1.0075-1.7339v-8.2239c0-.6326-.4451-1.4292-1.0075-1.7338l-4.9437-2.8584c-.8435-.4686-1.4292-1.3589-1.4292-2.3899v-5.3888c0-1.031.5623-1.9213 1.4292-2.3899l4.9437-2.8584c.5389-.3046.9841-1.1012.9841-1.7338z" fill="#333"/><path d="m33.0127 11.3753c0-.6326-.4452-1.42917-1.0075-1.73376l-7.1227-4.10023c-.5623-.32802-1.0075-.04686-1.0075.58574v8.17705c0 .6326.4452 1.4292 1.0075 1.7338l7.1227 4.1237c.5623.328 1.0075.0468 1.0075-.5858z" fill="gray"/><path d="m42.1269 14.3041c0 .6326-.4451 1.4292-1.0075 1.7338l-7.0992 4.1237c-.5623.328-1.0075.0468-1.0075-.5858v-8.2005c0-.6326.4452-1.42917 1.0075-1.73376l7.1227-4.10023c.5623-.32802 1.0075-.04686 1.0075.58574z" fill="#000"/><path d="m33.0127 38.9523c0-.6327-.4452-1.4293-1.0075-1.7339l-7.1227-4.1002c-.5623-.328-1.0075-.0469-1.0075.5858v8.2238c0 .6327.4452 1.4293 1.0075 1.7339l7.1227 4.1002c.5623.328 1.0075.0469 1.0075-.5858z" fill="gray"/><path d="m42.1269 41.881c0 .6326-.4452 1.4292-1.0075 1.7338l-7.1227 4.1002c-.5623.328-1.0074.0469-1.0074-.5857v-8.2239c0-.6326.4451-1.4292 1.0074-1.7338l7.1227-4.1003c.5623-.328 1.0075-.0468 1.0075.5858z" fill="#000"/></svg>

<svg class="mideind-logo" width="67" height="76" viewBox="0 0 67 76" fill="none" xmlns="http://www.w3.org/2000/svg">
            <path d="M41.1194 71.2153C41.6817 70.8872 42.1269 70.114 42.1269 69.4814V61.2575C42.1269 60.6249 41.6817 59.8283 41.1194 59.5237L33.9967 55.4235C33.4344 55.0955 32.5441 55.0955 31.9818 55.4235L24.9059 59.5237C24.3436 59.8518 23.8984 60.6249 23.8984 61.2575V69.4814C23.8984 70.114 24.3436 70.9107 24.9059 71.2153L32.0286 75.3155C32.5909 75.6435 33.4813 75.6435 34.0436 75.3155L41.1194 71.2153Z" fill="#333333"></path>
            <path d="M17.2444 45.7235L12.3007 42.8651C11.4572 42.3965 10.8715 41.5061 10.8715 40.4752V35.0864C10.8715 34.0554 11.4338 33.1651 12.3007 32.6965L17.2444 29.8381C17.8067 29.51 18.2519 28.7369 18.2519 28.1042V19.8804C18.2519 19.2477 17.8067 18.4511 17.2444 18.1465L10.1217 14.0463C9.5594 13.7183 8.66906 13.7183 8.10674 14.0463L1.00749 18.1465C0.445168 18.4746 0 19.2477 0 19.8804V28.1042C0 28.7369 0.445168 29.51 1.00749 29.8381L5.95119 32.6965C6.79467 33.1651 7.38042 34.0554 7.38042 35.0864V40.4752C7.38042 41.5061 6.8181 42.3965 5.95119 42.8651L1.00749 45.7235C0.445168 46.0515 0 46.8247 0 47.4573V55.6812C0 56.3138 0.445168 57.1105 1.00749 57.415L8.13017 61.5153C8.69249 61.8433 9.58283 61.8433 10.1451 61.5153L17.2444 57.415C17.8067 57.087 18.2519 56.3138 18.2519 55.6812V47.4573C18.2519 46.8247 17.7833 46.0515 17.2444 45.7235Z" fill="#333333"></path>
            <path d="M9.11423 25.1521C9.11423 24.5195 8.66906 23.7229 8.10674 23.4183L1.00749 19.3181C0.445168 18.9901 0 19.2478 0 19.8804V28.1043C0 28.7369 0.445168 29.5335 1.00749 29.8381L8.13017 33.9383C8.69249 34.2664 9.13766 33.9852 9.13766 33.3526L9.11423 25.1521Z" fill="#808080"></path>
            <path d="M18.2285 28.1041C18.2285 28.7367 17.7833 29.5333 17.221 29.8379L10.0983 33.9382C9.53599 34.2662 9.09082 33.985 9.09082 33.3524V25.1285C9.09082 24.4959 9.53599 23.6993 10.0983 23.3947L17.221 19.2945C17.7833 18.9665 18.2285 19.2476 18.2285 19.8802V28.1041Z" fill="black"></path>
            <path d="M9.11423 52.7291C9.11423 52.0965 8.66906 51.2999 8.10674 50.9953L1.00749 46.8951C0.445168 46.567 0 46.8482 0 47.4808V55.7047C0 56.3373 0.445168 57.1339 1.00749 57.4385L8.13017 61.5387C8.69249 61.8668 9.13766 61.5856 9.13766 60.953L9.11423 52.7291Z" fill="#808080"></path>
            <path d="M18.2285 55.6813C18.2285 56.3139 17.7833 57.1105 17.221 57.4151L10.0983 61.5153C9.53599 61.8433 9.09082 61.5622 9.09082 60.9296V52.7291C9.09082 52.0965 9.53599 51.2999 10.0983 50.9953L17.221 46.8951C17.7833 46.567 18.2285 46.8482 18.2285 47.4808V55.6813Z" fill="black"></path>
            <path d="M66.0253 28.1042V19.8804C66.0253 19.2477 65.5801 18.4511 65.0178 18.1465L57.8951 14.0463C57.3328 13.7183 56.4425 13.7183 55.8802 14.0463L48.7575 18.1465C48.1952 18.4746 47.75 19.2477 47.75 19.8804V28.1042C47.75 28.7369 48.1952 29.51 48.7575 29.8381L53.7012 32.6965C54.5447 33.1651 55.1304 34.0554 55.1304 35.0864V40.4752C55.1304 41.5061 54.5681 42.3965 53.7012 42.8651L48.7575 45.7235C48.1952 46.0515 47.75 46.8247 47.75 47.4573V55.6812C47.75 56.3138 48.1952 57.1105 48.7575 57.415L55.8802 61.5153C56.4425 61.8433 57.3328 61.8433 57.8951 61.5153L65.0178 57.415C65.5801 57.087 66.0253 56.3138 66.0253 55.6812V47.4573C66.0253 46.8247 65.5801 46.0281 65.0178 45.7235L60.0741 42.8651C59.2306 42.3965 58.6449 41.5061 58.6449 40.4752V35.0864C58.6449 34.0554 59.2072 33.1651 60.0741 32.6965L65.0178 29.8381C65.5801 29.51 66.0253 28.7369 66.0253 28.1042Z" fill="#333333"></path>
            <path d="M56.9111 25.152C56.9111 24.5194 56.4659 23.7227 55.9036 23.4181L48.7809 19.3179C48.2186 18.9899 47.7734 19.2711 47.7734 19.9037V28.1276C47.7734 28.7602 48.2186 29.5568 48.7809 29.8614L55.9036 33.9616C56.4659 34.2896 56.9111 34.0085 56.9111 33.3759V25.152Z" fill="#808080"></path>
            <path d="M66.0254 28.1041C66.0254 28.7367 65.5802 29.5333 65.0179 29.8379L57.8952 33.9382C57.3329 34.2662 56.8877 33.985 56.8877 33.3524V25.1285C56.8877 24.4959 57.3329 23.6993 57.8952 23.3947L65.0179 19.2945C65.5802 18.9665 66.0254 19.2476 66.0254 19.8802V28.1041Z" fill="black"></path>
            <path d="M56.9111 52.7291C56.9111 52.0965 56.4659 51.2999 55.9036 50.9953L48.7809 46.8951C48.2186 46.567 47.7734 46.8482 47.7734 47.4808V55.7047C47.7734 56.3373 48.2186 57.1339 48.7809 57.4385L55.9036 61.5387C56.4659 61.8668 56.9111 61.5856 56.9111 60.953V52.7291Z" fill="#808080"></path>
            <path d="M66.0254 55.6813C66.0254 56.3139 65.5802 57.1105 65.0179 57.4151L57.8952 61.5153C57.3329 61.8433 56.8877 61.5622 56.8877 60.9296V52.7291C56.8877 52.0965 57.3329 51.2999 57.8952 50.9953L65.0179 46.8951C65.5802 46.567 66.0254 46.8482 66.0254 47.4808V55.6813Z" fill="black"></path>
            <path d="M33.0127 66.5292C33.0127 65.8965 32.5675 65.0999 32.0052 64.7953L24.9059 60.6951C24.3436 60.3671 23.8984 60.6483 23.8984 61.2809V69.5048C23.8984 70.1374 24.3436 70.934 24.9059 71.2386L32.0286 75.3388C32.5909 75.6668 33.0361 75.3857 33.0361 74.7531L33.0127 66.5292Z" fill="#808080"></path>
            <path d="M42.1269 69.4813C42.1269 70.1139 41.6817 70.9105 41.1194 71.2151L33.9967 75.3154C33.4344 75.6434 32.9893 75.3622 32.9893 74.7296V66.5057C32.9893 65.8731 33.4344 65.0765 33.9967 64.7719L41.1194 60.6717C41.6817 60.3437 42.1269 60.6248 42.1269 61.2574V69.4813Z" fill="black"></path>
            <path d="M42.1269 14.304V6.10349C42.1269 5.47088 41.6817 4.67426 41.1194 4.36968L34.0201 0.246014C33.4578 -0.0820046 32.5675 -0.0820046 32.0052 0.246014L24.8825 4.34625C24.3202 4.67426 23.875 5.44745 23.875 6.08006V14.304C23.875 14.9366 24.3202 15.7097 24.8825 16.0378L29.8262 18.8962C30.6697 19.3648 31.2554 20.2551 31.2554 21.2861V26.6749C31.2554 27.7059 30.6931 28.5962 29.8262 29.0648L24.8825 31.9232C24.3202 32.2513 23.875 33.0244 23.875 33.657V41.8809C23.875 42.5135 24.3202 43.3102 24.8825 43.6148L32.0052 47.715C32.5675 48.043 33.4578 48.043 34.0201 47.715L41.1428 43.6148C41.7052 43.2867 42.1503 42.5135 42.1503 41.8809V33.657C42.1503 33.0244 41.7052 32.2278 41.1428 31.9232L36.1991 29.0648C35.3556 28.5962 34.7699 27.7059 34.7699 26.6749V21.2861C34.7699 20.2551 35.3322 19.3648 36.1991 18.8962L41.1428 16.0378C41.6817 15.7332 42.1269 14.9366 42.1269 14.304Z" fill="#333333"></path>
            <path d="M33.0127 11.3753C33.0127 10.7427 32.5675 9.94613 32.0052 9.64154L24.8825 5.54131C24.3202 5.21329 23.875 5.49445 23.875 6.12705V14.3041C23.875 14.9367 24.3202 15.7333 24.8825 16.0379L32.0052 20.1616C32.5675 20.4896 33.0127 20.2084 33.0127 19.5758V11.3753Z" fill="#808080"></path>
            <path d="M42.1269 14.3041C42.1269 14.9367 41.6818 15.7333 41.1194 16.0379L34.0202 20.1616C33.4579 20.4896 33.0127 20.2084 33.0127 19.5758V11.3753C33.0127 10.7427 33.4579 9.94613 34.0202 9.64154L41.1429 5.54131C41.7052 5.21329 42.1504 5.49445 42.1504 6.12705L42.1269 14.3041Z" fill="black"></path>
            <path d="M33.0127 38.9523C33.0127 38.3196 32.5675 37.523 32.0052 37.2184L24.8825 33.1182C24.3202 32.7902 23.875 33.0713 23.875 33.704V41.9278C23.875 42.5605 24.3202 43.3571 24.8825 43.6617L32.0052 47.7619C32.5675 48.0899 33.0127 47.8088 33.0127 47.1761V38.9523Z" fill="#808080"></path>
            <path d="M42.1269 41.881C42.1269 42.5136 41.6817 43.3102 41.1194 43.6148L33.9967 47.715C33.4344 48.043 32.9893 47.7619 32.9893 47.1293V38.9054C32.9893 38.2728 33.4344 37.4762 33.9967 37.1716L41.1194 33.0713C41.6817 32.7433 42.1269 33.0245 42.1269 33.6571V41.881Z" fill="black"></path>
        </svg>
